X:1
T:Buxton
T:D minor            Jacob French, 1789
T:Transcribed from The New American Melody, 1789.
T:Isaac Watts, 1709 (Hymn 63, Book 2)           86. 86. (C. M.)
%%score [ 1 2 3 4 ]
L:1/8
Q:1/4=120
M:2/2
K:F
V:1 treble nm="Tr." snm="Tr."
V:2 treble nm="C." snm="C."
V:3 treble-8 nm="T." snm="T."
V:4 bass nm="B." snm="B."
V:1
"_1. Hark! from the tombs a doleful  sound; My ears,   at  –  tend   the            cry;  Ye  li –ving men, come view ______________________  the ground  Where you must shortly lie." A3 z A2 A2 | %1
 A4 A4 | c4 A4 | A8 | A4 AG FG | A4 A4 | A8 | c4 AB c2 | d4 ^c4 | (d4 c4 | B2 cB A2) ^G2 | A8 | %12
 F4 A2 G2 | (F2 A2) A4 | A8 |] %15
V:2
"_2. Prin – ces,  this clay must be your bed,  In  spite   of       all     your      towers;  The tall, the wise, the  re         –         –         –         –     verend head  Must lie as  low     as    ours!\n3. Great God!  is   this our certain doom?  And  are  we      still   se     –    cure?  Still walking downward to _________________________  our tomb,  And  yet  prepare  no  more?" D3 z F2 E2 | %1
 F4 D4 | G4 F4 | E8 | D4 FE DC | D4 (3(^C2 D2 E2) | F8 | E4 F2 G2 | A4 A4 | (B4 A4 | G3 F E2) E2 | %11
 E8 | D4 C2 C2 | (D2 F2) E4 | F8 |] %15
V:3
"_4. Grant us the powers of quick'ning grace, To  fit     our     souls   to           fly,  Then, when we drop this dy         –         –         –         –      ing flesh,  We'll rise a – bove  the    sky." A3 z d2 ^c2 | %1
 d4 f4 | e4 d4 | ^c8 | A4 d2 AG | F4 (3(A2 B2 c2) | d8 | A4 d2 e2 | f4 e4 | (f2 gf e2 fe | %10
 d2 ed c2) B2 | A8 | A4 F2 G2 | (A2 d2) ^c4 | d8 |] %15
V:4
 D,3 z D,2 A,,2 | D,4 D,4 | C,4 D,4 | A,,8 | D,4 D,2 D,2 | D,4 A,,4 | D,8 | A,4 F,2 E,2 | %8
 D,4 [A,,A,]4 | ([B,,B,]2 [G,,G,]2 [A,,A,]2 [F,,F,]2 | G,2 C,D, E,2) E,2 | A,,8 | D,4 F,2 E,2 | %13
 D,4 A,,4 | D,8 |] %15

